svg/symfony.svg

<svg viewBox="0 0 20 20" xmlns="http://www.w3.org/2000/svg">
<rect width="100%" height="100%" fill="#1A171B"/>
<path d="M15.7932 1.50213C14.5166 1.54665 13.4023 2.25017 12.5729 3.22356C11.6545 4.29065 11.0435 5.55637 10.6033 6.84841C9.81576 6.20297 9.20826 5.36742 7.94487 5.00308C6.96838 4.72275 5.94272 4.83852 4.99953 5.54127C4.55272 5.87502 4.2449 6.37953 4.09855 6.85383C3.71949 8.08625 4.49696 9.18315 4.85008 9.57692L5.62213 10.4043C5.78126 10.5666 6.16458 10.9898 5.97718 11.5965C5.77468 12.2563 4.9794 12.6833 4.16359 12.4316C3.79925 12.3205 3.27577 12.0491 3.39309 11.667C3.44149 11.5105 3.55339 11.3936 3.6134 11.2585C3.66838 11.1423 3.69471 11.0552 3.71136 11.0041C3.86043 10.5174 3.65677 9.88434 3.13561 9.72366C2.64931 9.57459 2.15177 9.69269 1.95895 10.3188C1.74019 11.03 2.08053 12.3209 3.90379 12.8831C6.0399 13.5394 7.84691 12.3763 8.10323 10.8593C8.26468 9.90913 7.83568 9.20328 7.04969 8.29533L6.40928 7.58716C6.02132 7.19959 5.88813 6.53905 6.28964 6.03144C6.62843 5.60322 7.11086 5.42046 7.90111 5.63535C9.05454 5.94859 9.56873 6.7489 10.4267 7.39434C10.0725 8.55629 9.84092 9.7225 9.63145 10.7683L9.50368 11.5481C8.89038 14.7648 8.42227 16.5312 7.20573 17.5452C6.96064 17.7195 6.61023 17.9804 6.08211 17.9986C5.80527 18.0071 5.71583 17.8167 5.71196 17.7338C5.70537 17.5394 5.86916 17.4504 5.97795 17.3629C6.14057 17.2742 6.38644 17.1271 6.36979 16.6559C6.35198 16.0991 5.89084 15.6163 5.2241 15.6383C4.72463 15.6554 3.96342 16.1254 3.99207 16.9857C4.02188 17.8743 4.85008 18.5403 6.09876 18.4981C6.76627 18.4753 8.25694 18.2035 9.72593 16.4572C11.4357 14.4555 11.9139 12.1606 12.2736 10.481L12.6751 8.26358C12.8982 8.29029 13.1367 8.30811 13.3961 8.3143C15.5256 8.35921 16.5908 7.25612 16.6066 6.45387C16.6171 5.96833 16.288 5.49054 15.8272 5.50139C15.4973 5.51068 15.0831 5.73021 14.9835 6.18632C14.8864 6.63391 15.6611 7.03774 15.0556 7.42996C14.6254 7.70835 13.8541 7.90466 12.7681 7.74514L12.9655 6.65365C13.3686 4.58375 13.8657 2.03761 15.7517 1.97566C15.8892 1.96869 16.3921 1.98185 16.4037 2.31445C16.4072 2.42557 16.3797 2.45383 16.2496 2.70822C16.1172 2.90646 16.0673 3.07527 16.0735 3.26925C16.0917 3.79776 16.4936 4.14507 17.0747 4.12416C17.853 4.09899 18.0768 3.34127 18.064 2.95214C18.0326 2.038 17.0689 1.46031 15.7932 1.50213Z" fill="white"/>
</svg>

<svg xmlns="http://www.w3.org/2000/svg" viewBox="0 0 20 20">
  <rect width="100%" height="100%" fill="#1A171B"/>
  <path fill="#fff" d="M15.8 1.5a4.5 4.5 0 0 0-3.23 1.72 10.85 10.85 0 0 0-1.97 3.63C9.82 6.2 9.2 5.37 7.94 5c-.97-.28-2-.16-2.94.54-.45.34-.76.84-.9 1.31-.38 1.24.4 2.33.75 2.73l.77.82c.16.17.54.59.36 1.2-.2.66-1 1.08-1.82.83-.36-.11-.88-.38-.77-.76.05-.16.16-.28.22-.41.06-.12.08-.2.1-.26.15-.48-.05-1.12-.57-1.28-.5-.15-.99-.03-1.18.6-.22.71.12 2 1.94 2.56 2.14.66 3.95-.5 4.2-2.02.16-.95-.26-1.66-1.05-2.56l-.64-.71a1.17 1.17 0 0 1-.12-1.56c.34-.43.82-.61 1.61-.4 1.15.32 1.67 1.12 2.53 1.76-.36 1.17-.59 2.33-.8 3.38l-.13.78c-.61 3.21-1.08 4.98-2.3 6-.24.17-.59.43-1.12.45-.27 0-.36-.18-.37-.27 0-.2.16-.28.27-.37.16-.09.4-.23.39-.7a1.07 1.07 0 0 0-1.15-1.02c-.5.02-1.26.49-1.23 1.35.03.88.86 1.55 2.1 1.5.68-.01 2.17-.29 3.64-2.03 1.7-2 2.18-4.3 2.54-5.98l.4-2.22c.23.03.47.05.73.05 2.13.05 3.2-1.05 3.2-1.86.02-.48-.31-.96-.77-.95a.89.89 0 0 0-.85.69c-.1.44.68.85.08 1.24-.43.28-1.2.47-2.3.32l.2-1.1c.4-2.07.9-4.61 2.8-4.67.13-.01.63 0 .64.33 0 .12-.02.14-.15.4a.9.9 0 0 0-.18.56c.02.53.42.88 1 .85.78-.02 1-.78 1-1.17-.04-.91-1-1.49-2.28-1.45Z"/>
</svg>
